X:25
T:Green Mountain Hornpipe
M:2/4
L:1/16
Z:jason
B: Bill Driver, 1950
K:A
cd | e2ef edcd | e2a2 e3c | d2dc dcBc | d2f2 edcd |
e2ef edcd | e2a2 e2a2 | g2f2 (3(fgf)ed | cBAB A2 :|
|: (3(aba) | f2d2 fgaf | ecAc [e2e2]e2 | EGBc dcde | (3(fef)ed c2(3(aba) |
f2d2 fgaf | ecAc e2a2 | g2f2 (3(fgf)ed | cBAB A2 :|

